X:1
T:Nunc O Deus, te protinus
T:Adam Gumpelzhaimer
T:Source : Neüe Teütsche Geistliche Lieder mit 3 stimmen---Augsburg---V.Schönigk---1591. Editor : André Vierendeels (03/07/16).
T:Notes : Original clefs : C1, C2, C4 Editorial accidentals above the staff Middle German version : "Herr Gott zu dir" (A.Gumpelzhaimer) 
T:Nunc O Deus, te protinus
T:©
T:©
T:©
C:Adam Gumpelzhaimer
Z:©
%%score [ 1 2 3 ]
L:1/8
Q:1/4=95
M:4/4
K:C
V:1 treble nm="Soprano" snm="S"
V:2 treble nm="Alto" snm="A"
V:3 treble-8 nm="Tenor" snm="T"
V:1
 A4 A2 F2 | G4 A2 F2- | F2 G2 E4 | z2 A2 _B4 | A2 F4 A2 | G4 A4 | A4 A2 F2 | G4 A2 F2- | F2 G2 E4 | %9
w: Nunc, O De-|us, te pro-|* ti- nus,|no- stri|pe- runt o-|cel- li,|in te lo-|cant, spem quam|_ le- gant,|
w: Quan- do tu-|am sum- ma|_ vo- lam,|no- bis|ab ar- ce|pan- dis:|Tunc lar- gi-|us das o-|* mni- bus,|
w: Urqu' o- mni-|a, vi- ven-|* ti- a,|plau- dunt|mo- do de-|cen- ti:|Sic nos ti-|bi gra- tes|_ pri- i,|
w: Dul- cis pa-|rens, Coe- los|_ re- gens,|te san-|cta vox ce-|le- bret;|tu nos re-|gas: Quod im-|* pe- ras,|
 z2 A2 _B4 | A2 F4 A2 | G4 A4 | z2 A2 G2 F2 | E2 A2 G2 F2 | E4 A4 | _B4 A2 AB | cBAG A2 B2 | %17
w: no- bis|le- ves po-|pel- li,|fi- xus tu-|a, stat dex- te-|ra, vi-|tae flu- en- *|* * * * * tis|
w: per- en-|nis in- star|an- nis,|ex gra- ti-|ae pe- nu tu-|ae, po-|tu- um ci- *||
w: da- mus|De- o, fo-|ven- ti,|res cor- po-|rum et cor- di-|um, ut|spes fi- des- *|* * * * * que|
w: hic, ut|per a- stra|fi- at,|pa- nem tu-|is da fi- li-|is, pec-|ca- ta tu _|re- * * * * *|
 ^c2 d4 c2 | d8 | z2 A2 G2 F2 | E2 A2 G2 F2 | E4 A4 | _B4 A2 AB |"^-natural" cBAG A2 B2 | %24
w: or- * *|tus,|huic sic so-|les, ut et po-|tes, su-|os de- dis- *|* * * * * se|
w: bum- * *|que,|sa- li, so-|li, va- sti et|po- li,|pro pa- tri _|o _ _ _ _ fa-|
w: no- * *|stra,|ut hac- te-|nus, sic ple- ni-|us, in|te ma- ne- *|* * * * at re-|
w: mit- * *|te,|tan- dem pri-|is, pres- sos ma-|lis, sty-|gio tu- e- *|* * * * re ab|
 ^c2 d4 c2 | !fermata!d8 |] %26
w: vi- * *|ctos.|
w: vo- * *|re.|
w: po- * *|sta.|
w: ho- * *|ste.|
V:2
 F4 F2 D2 | E4 E2 D2- | D2 D2 ^C4 | z2 F2 D4 | ^C2 D4 F2 | E4 F4 | F4 F2 D2 | E4 E2 D2- | %8
w: Nunc, O De-|us, te pro-|* ti- nus,|no- stri|pe- runt o-|cel- li,|in te lo-|cant, spem quam|
w: Quan- do tu-|am sum- ma|_ vo- lam,|no- bis|ab ar- ce|pan- dis:|Tunc lar- gi-|us das o-|
w: Urqu' o- mni-|a, vi- ven-|* ti- a,,|plau- dunt|mo- do de-|cen- ti:|Sic nos ti-|bi gra- tes|
w: Dul- cis pa-|rens, Coe- los|_ re- gens,|te san-|cta vox ce-|le- bret;|tu nos re-|gas: quod im-|
 D2 D2 ^C4 | z2 F2 D4 | ^C2 D4 F2 | E4 F2 A2 | G2 F2 E2 D2 | C3 D E2 D2 | C2 C4 D2- | D2 E2 F3 G | %16
w: _ le- gant,|no- bis|le- ves po-|pel- li, fi-|xus tu- a stat|dex- * * te-|ra, vi- tae|_ flu- en- *|
w: * mni- bus,|per- en-|nis in- star|an- nis, ex|gra- ti- ae pe-|nu _ _ tu-|ae, po- tum|_ su- um _|
w: _ pri- i,|da- mus|De- o, fo-|ven- ti, res|cor- po- rum et|cor- * * di-|um, ut spes|_ fi- des- *|
w: * pe- ras,|hic, ut|per a- stra|fi- at, pa-|nem tu- is da|fi- * * li-|is, pec- ca-|* ta tu _|
"^-natural" AB c4 B2 | A2 GF E4 | F4 z2 A2 | G2 F2 E2 D2 | C3 D E2 D2 | C2 C4 D2- | D2 E2 F3 G | %23
w: * * * tis|or- * * *|tus, huic|sic so- les ut|et _ _ po-|tes, su- os|_ de- dis- *|
w: _ _ _ ci-|bum- * * *|que, sa-|li, so- li, va-|sti et po- li,|pro pa- tri-|* o fa- *|
w: * * * que|no- * * *|stra, ut|hac- te- nus, sic|ple- * * ni-|us, in te|_ ma- ne- at|
w: _ _ _ re-|mit- * * *|te, tan-|dem pri- is, pres-|sos _ _ ma-|lis, sty- gio|_ tu- e- *|
"^-natural" AB c4 B2 | A2 GF E4 | !fermata!^F8 |] %26
w: * * * se|vi- * * *|ctos.|
w: |vo- * * *|re.|
w: _ _ _ re-|po- * * *|sta.|
w: * * re ab|ho- * * *|ste.-|
V:3
 d4 d2 d2 | c4 A2 _B2- | B2 G2 A4 | z2 F2 G4 | A2 _B4 F2 | c4 F4 | d4 d2 d2 | c4 A2 _B2- | %8
w: Nunc, O De-|us, te pro-|* ti- nus,|no- stri|pe- runt o-|cel- li,|in te lo-|cant, spem quam|
w: Quan- do tu-|am sum- ma|_ vo- lam,|no- bis|ab ar- ce|pan- dis:|Tunc lar- gi-|us, das o-|
w: Urqu' o- mni-|a, vi- ven-|* ti- a,|plau- dunt|mo- do de-|cen- ti:|Sic nos ti-|bi gra- tes|
w: Dul- cis pa-|rens, Coe- los|_ re- gens,|te san-|cta vox ce-|le- bret,|tu nos re-|gas: quod im-|
 B2 G2 A4 | z2 F2 G4 | A2 _B4 A2 | c4 F4 | z2 F2 c2 d2 | A2 F2 c2 d2 | A4 F4 | G4 D2 F2- | %16
w: _ le- gant,|no- bis|le- ves po-|pel- li,|fi- xus tu-|a stat dex- te-|ra, vi-|tae flu- en-|
w: * mni- bus,|per- en-|nis in- star|an- nis,|ex gra- ti-|ae pe- nu tu-|ae, po-|tum ci- *|
w: _ pri- i,|da- mus|De- o, fo-|ven- ti,|res cor- po-|rum et cor- di-|um; ut|spes fi- des-|
w: * pe- ras,|hic, ut|per a- stra|fi- at,|pa- nem tu-|is da fi- li-|is, pec-|ca- ta tu|
 FGAB c2 d2 | A8 | D8 | z2 F2 c2 d2 | A2 F2 c2 d2 | A4 F4 | G4 D2 F2- | FGAB c2 d2 | A8 | %25
w: * * * * * tis|or-|tus,|huic so- les|ut et po- tes,|su- os|de- sis- *|* * * * * se|vi-|
w: |bum-|que,|sa- li, so-|li va- sti et|po- li,|pro pa- tri-|* * * * o fa-|vo-|
w: * * * * * que|no-|stra,|ut hac- te-|nus, sic ple- ni-|us, in|te ma- ne-|at _ _ _ _ re-|po-|
w: _ _ _ _ _ re-|mit-|te,|tan- dem pri-|is, pres- sos ma-|lis, sty-|gio tu- e-|* * * * re ab|ho-|
 !fermata!D8 |] %26
w: ctos.|
w: re.|
w: sta.|
w: ste.|

